components/Common/Svg/svgs/cancel.svg

<svg width="40" height="40" viewBox="0 0 40 40" fill="none" xmlns="http://www.w3.org/2000/svg">
<path fill-rule="evenodd" clip-rule="evenodd" d="M10.1012 8.68578C9.71063 8.29525 9.07746 8.29525 8.68694 8.68578C8.29641 9.0763 8.29641 9.70947 8.68694 10.1L18.5864 19.9995L8.68645 29.8995C8.29592 30.29 8.29592 30.9232 8.68645 31.3137C9.07697 31.7042 9.71014 31.7042 10.1007 31.3137L20.0007 21.4137L29.9001 31.3132C30.2907 31.7037 30.9238 31.7037 31.3144 31.3132C31.7049 30.9227 31.7049 30.2895 31.3144 29.899L21.4149 19.9995L31.3139 10.1005C31.7044 9.70998 31.7044 9.07681 31.3139 8.68629C30.9233 8.29576 30.2902 8.29576 29.8997 8.68629L20.0007 18.5853L10.1012 8.68578Z" fill="#161616"/>
</svg>

<svg width="40" height="40" viewBox="0 0 40 40" fill="none" xmlns="http://www.w3.org/2000/svg"><path fill-rule="evenodd" clip-rule="evenodd" d="M10.101 8.686A1 1 0 0 0 8.687 10.1l9.9 9.9-9.9 9.9a1 1 0 1 0 1.414 1.414l9.9-9.9 9.9 9.9a1 1 0 0 0 1.413-1.415l-9.9-9.9 9.9-9.898A1 1 0 0 0 29.9 8.686l-9.9 9.9-9.899-9.9Z" fill="#161616"/></svg>
